!! 00005] TT[TB
!! Eigene Aufnahme
!!!OTL: Haolang haojie bu yong mei
!!!ARE: Asia, China,ÿHunan, Sanzhi
!! Ethnic Group: Han
!! I, 540
!!!SCT: C0128
!!!YEM: Copyright 1995, estate of Helmut Schaffrath.
**kern
*ICvox
*Ivox
*M4/4
*k[f#c#]
*D:
{8a
8a
8b
8dd
4.ee
8dd
=1
8b
8ee
4dd
4b
4a}
=2
{8dd
16b
16a
8dd
8dd
16b
16dd
8ee
4dd
=3
8dd
16b
16a
16g
16a
8b
2a}
=4
{8a
8a
8a
8b
4.ee
8dd
=5
8b
8ee
4dd
4b
4a}
=6
{16b
16dd
16b
16a
8dd
8dd
16b
16dd
8ee
4dd
=7
8a
16b
16dd
4b
2a}
==
!!!AGN: Shange
!!!ONB: ESAC (Essen Associative Code) Database: CHINA
!!!AMT: simple quadruple
!!!AIN: vox
!!!EED: Helmut Schaffrath
!!!EEV: 1.0
*-
